X:950
T:Jimmy Connors
T:The Brosna Slide
S:Shegui, Around the World for Sport
Z:Nigel Gatherer
M:12/8
L:1/8
K:D
B | A2D FED A2F G2B | A2D FED E2F G2B | A2D FED A2F G2B | ABA G2E D3 D2 :|
A | d2B A2B =cBA G2A | d2B ABc d3 e3 | d2B A2B =cBA G2B | ABA G2E D3 D2 :|
<end>
<start>
